build/img/9-resources/dna.svg

<svg width="40" height="40" viewBox="0 0 40 40" fill="none" xmlns="http://www.w3.org/2000/svg">
<g clip-path="url(#clip0)">
<path d="M36.7119 10.3659C36.3286 10.7492 35.93 11.0605 35.5101 11.3076L28.6919 4.4891C28.9391 4.06948 29.25 3.67092 29.6336 3.28732C30.3667 2.55429 30.3667 1.36135 29.6333 0.628014C28.9003 -0.105019 27.7074 -0.105324 26.974 0.628014C23.9223 3.67977 23.8777 7.36874 24.4118 10.6994C20.5345 9.90018 16.2483 9.56021 12.8267 12.9815C11.28 14.5285 10.3908 16.3452 10.1082 18.536C10.0667 18.8574 10.2937 19.1516 10.6151 19.1931C10.9355 19.2346 11.2306 19.0075 11.2718 18.6862C11.5202 16.7624 12.2999 15.1678 13.6564 13.8113C16.8089 10.6588 20.7915 11.1126 24.6376 11.9467C24.7523 12.5213 24.854 12.9721 24.966 13.4674C21.1446 12.5982 17.4434 11.9839 14.6522 14.8153C8.41321 21.0632 19.0147 31.7221 12.0405 38.6963C11.765 38.9719 11.3164 38.9719 11.0408 38.6963C10.7649 38.4207 10.7649 37.9721 11.0408 37.6965C15.4631 33.2739 11.5117 26.9208 11.2019 20.8383C11.1851 20.5148 10.912 20.2652 10.5861 20.2823C10.2623 20.2987 10.0132 20.5746 10.0297 20.8981C10.0941 22.1597 10.3084 23.4241 10.5443 24.5666C7.21356 24.0329 3.5249 24.0774 0.473138 27.1289C-0.261727 27.8634 -0.262032 29.0533 0.473138 29.7882C1.208 30.5234 2.39758 30.5234 3.13275 29.7882C3.51605 29.4049 3.91461 29.0939 4.33423 28.8467L11.1528 35.665C10.9053 36.0849 10.5943 36.4834 10.211 36.8667C9.47766 37.5998 9.47766 38.793 10.211 39.5261C10.944 40.2594 12.137 40.2594 12.8703 39.5261C15.9221 36.4743 15.9666 32.7853 15.4326 29.4546C19.8582 30.3668 23.813 30.3772 27.0177 27.1725C30.4393 23.7509 30.0987 19.4641 29.2995 15.5868C30.4128 15.7638 31.5309 15.8709 32.6567 15.8355C32.9805 15.8252 33.2347 15.5542 33.2246 15.2304C33.2143 14.9066 32.9439 14.6512 32.6198 14.6624C31.5681 14.6954 30.4198 14.5968 29.03 14.3518C28.9171 13.8565 28.8072 13.3899 28.6836 12.8534C31.9383 13.5086 35.0362 13.7011 37.5417 11.1956C37.8172 10.9201 38.2655 10.9201 38.5414 11.1956C38.8179 11.4718 38.8179 11.9192 38.5414 12.1954C37.4437 13.2934 36.2038 14.0063 34.7511 14.3747C34.4371 14.4543 34.247 14.7732 34.3266 15.0876C34.4063 15.4016 34.7255 15.5917 35.0395 15.5121C36.7027 15.0903 38.1197 14.277 39.3712 13.0252C39.7264 12.67 39.922 12.1978 39.922 11.6955C39.922 10.0253 37.8896 9.1882 36.7119 10.3659ZM2.30297 28.9584C2.02648 29.2349 1.5794 29.2349 1.30291 28.9584C1.02673 28.6822 1.02642 28.2352 1.30291 27.9587C3.20324 26.0583 5.43103 25.4867 7.64661 25.4867C8.71808 25.4867 9.78711 25.6204 10.8146 25.8023C10.9266 26.2948 11.0408 26.7792 11.161 27.301C7.90631 26.6455 4.80847 26.4529 2.30297 28.9584ZM5.48688 28.3395C7.07898 27.8503 8.98328 28.0374 11.4412 28.558C11.9621 31.0159 12.1492 32.9202 11.6597 34.5123L5.48688 28.3395ZM14.5845 25.415C14.1371 23.483 13.7413 21.6812 13.7587 20.0509L19.9483 26.2405C18.318 26.2579 16.5162 25.8624 14.5845 25.415ZM21.4534 26.0864L13.9128 18.5458C14.0993 17.6559 14.4676 16.8295 15.0908 16.0751L23.9238 24.9084C23.1697 25.5319 22.3436 25.8999 21.4534 26.0864ZM24.7539 24.079L15.9205 15.2456C16.6746 14.6225 17.5011 14.2541 18.3909 14.0677L25.9315 21.6083C25.7451 22.4981 25.377 23.3246 24.7539 24.079ZM25.2602 14.739C25.7075 16.6711 26.1031 18.4729 26.086 20.1031L19.8964 13.9135C21.5263 13.8962 23.3284 14.2917 25.2602 14.739ZM26.1879 26.3428C23.0354 29.4952 19.0532 29.0414 15.2067 28.2074C15.124 27.7948 15.034 27.3697 14.8784 26.6867C18.7489 27.5671 22.3738 28.157 25.1881 25.3427C31.3857 19.1455 20.8696 8.392 27.8041 1.45779C28.0797 1.18221 28.528 1.18191 28.8039 1.45779C29.0794 1.73336 29.0794 2.18197 28.8039 2.45754C22.5709 8.69046 33.1599 19.371 26.1879 26.3428ZM28.4035 11.596C27.8825 9.13815 27.6955 7.23385 28.185 5.64175L34.3578 11.8145C32.7657 12.304 30.8614 12.117 28.4035 11.596Z" fill="#333333"/>
</g>
<defs>
<clipPath id="clip0">
<rect width="40" height="40" fill="white"/>
</clipPath>
</defs>
</svg>

<svg width="40" height="40" fill="none" xmlns="http://www.w3.org/2000/svg"><g clip-path="url(#clip0)"><path d="M36.712 10.366a6.007 6.007 0 01-1.202.942l-6.818-6.819c.247-.42.558-.818.942-1.202a1.882 1.882 0 000-2.659 1.883 1.883 0 00-2.66 0c-3.052 3.052-3.096 6.74-2.562 10.071-3.877-.799-8.164-1.139-11.585 2.283-1.547 1.546-2.436 3.363-2.719 5.554a.587.587 0 001.164.15c.248-1.924 1.028-3.518 2.384-4.875 3.153-3.152 7.135-2.698 10.982-1.864.114.574.216 1.025.328 1.52-3.821-.869-7.523-1.483-10.314 1.348-6.239 6.248 4.363 16.907-2.611 23.881a.708.708 0 01-1-1c4.422-4.422.47-10.775.16-16.858a.587.587 0 00-1.172.06c.065 1.262.28 2.526.515 3.669-3.33-.534-7.02-.49-10.07 2.562a1.88 1.88 0 000 2.66 1.88 1.88 0 002.659 0 6.016 6.016 0 011.201-.942l6.819 6.818c-.248.42-.559.818-.942 1.202a1.882 1.882 0 000 2.66 1.882 1.882 0 002.66 0c3.051-3.053 3.096-6.742 2.562-10.072 4.425.912 8.38.922 11.585-2.282 3.421-3.422 3.08-7.709 2.281-11.586 1.114.177 2.232.284 3.358.248a.587.587 0 00-.037-1.173c-1.052.033-2.2-.065-3.59-.31-.113-.495-.223-.962-.346-1.499 3.254.656 6.352.848 8.858-1.657a.708.708 0 011 1c-1.098 1.097-2.338 1.81-3.79 2.179a.587.587 0 10.287 1.137c1.664-.422 3.08-1.235 4.332-2.487.355-.355.551-.827.551-1.33 0-1.67-2.032-2.507-3.21-1.33zM2.303 28.958a.707.707 0 11-1-1c1.9-1.9 4.128-2.471 6.344-2.471 1.071 0 2.14.133 3.168.315.112.493.226.977.346 1.499-3.255-.655-6.353-.848-8.858 1.657zm3.184-.618c1.592-.49 3.496-.303 5.954.218.521 2.458.708 4.362.219 5.954L5.487 28.34zm9.098-2.925c-.448-1.932-.844-3.734-.826-5.364l6.19 6.19c-1.631.017-3.433-.379-5.365-.826zm6.868.671l-7.54-7.54a5.602 5.602 0 011.178-2.47l8.833 8.832a5.595 5.595 0 01-2.47 1.178zm3.3-2.007l-8.832-8.833a5.6 5.6 0 012.47-1.178l7.54 7.54a5.602 5.602 0 01-1.177 2.471zm.507-9.34c.447 1.932.843 3.734.826 5.364l-6.19-6.19c1.63-.017 3.432.379 5.364.826zm.928 11.604c-3.153 3.152-7.135 2.698-10.981 1.864a55.796 55.796 0 00-.329-1.52c3.87.88 7.496 1.47 10.31-1.344 6.198-6.198-4.318-16.951 2.616-23.885a.708.708 0 011 1C22.57 8.69 33.16 19.37 26.188 26.343zm2.216-14.747c-.521-2.458-.709-4.362-.219-5.954l6.173 6.173c-1.592.489-3.497.302-5.954-.219z" fill="#333"/></g><defs><clipPath id="clip0"><path fill="#fff" d="M0 0h40v40H0z"/></clipPath></defs></svg>
